app/dist/common/images/globalfoundries.svg

<svg height="18" viewBox="0 0 18 18" width="18" xmlns="http://www.w3.org/2000/svg"><path d="m0 0h18v18h-18z" fill="#ff6012"/><path d="m4.34 11.43h2.66v2.57a2.58 2.58 0 0 1 -2.66-2.57zm7.66-4.43h2v-2h-2zm0 3h2v-2h-2zm-5-5c-1.71 0-3 1.3-3 2.9s1.29 2.89 3 2.89zm4 0c-1.52 0-3 1.15-3 2.57v6.43c1.52 0 3-1.15 3-2.57z" fill="#fff"/></svg>

<!-- by TradingView --><svg xmlns="http://www.w3.org/2000/svg" width="18" height="18" viewBox="0 0 18 18"><path fill="#FF6012" d="M0 0h18v18H0z"/><path d="M4.34 11.43H7V14a2.58 2.58 0 0 1-2.66-2.57zM12 7h2V5h-2v2zm0 3h2V8h-2v2zM7 5C5.29 5 4 6.3 4 7.9c0 1.6 1.29 2.89 3 2.89V5zm4 0C9.48 5 8 6.15 8 7.57V14c1.52 0 3-1.15 3-2.57V5z" fill="#fff"/></svg>
